X: 14610
T: Gan Ainm
R: polka
M: 2/4
K: Gmajor
|:E/|DG GB|AG E/F/G/E/|D>G GB|AG E>d|
e/f/g/e/ d/e/d/B/|A/B/A/G/ E/F/G/E/|DG AG/A/|BG G3/2:|
|:e/|dB Ge/e/|dB G>e|dB GB/d/|eg g>d|
e/f/g/e/ d/e/d/B/|A/B/A/G/ E/F/G/E/|DG AG/A/|BG G3/2:|

